assets/svg/apple_icon.svg

<svg fill="none" height="26" viewBox="0 0 22 26" width="22" xmlns="http://www.w3.org/2000/svg"><path d="m5.66838 25.5131c-.51262-.341-.96694-.7624-1.3455-1.248-.41642-.5011-.80224-1.027-1.15538-1.5746-.82868-1.214-1.47856-2.5408-1.92968-3.9398-.541941-1.625-.804379-3.1826-.804379-4.706 0-1.7014.368063-3.1866 1.087939-4.43461.53363-.97546 1.31821-1.79061 2.27256-2.36113.92488-.57446 1.98757-.88883 3.07613-.91.38106 0 .79137.05525 1.22687.16088.31281.08856.69388.22831 1.15944.40218.59231.22832.91812.36807 1.02862.40219.3469.12675.6386.182.8678.182.1738 0 .4192-.05525.6979-.13975.1568-.05525.4526-.15275.8759-.33394.4192-.15275.7491-.28356 1.0115-.38106.4022-.11862.7914-.22831 1.1383-.28356.4113-.06484.8287-.08202 1.244-.05119.7195.04703 1.4283.19951 2.1035.45256 1.1042.44444 1.9972 1.13832 2.6618 2.12469-.2809.17314-.5446.37285-.7873.59638-.5285.46847-.9786 1.01846-1.3333 1.62906-.4637.8345-.7041 1.7745-.698 2.7292.0171 1.1724.3177 2.2051.91 3.098.4355.6618 1.0014 1.2278 1.6632 1.6632.3388.2283.6305.3852.91.4908-.1308.4062-.2706.7995-.4355 1.1895-.3741.8746-.8274 1.713-1.3544 2.5049-.4696.6817-.8377 1.1895-1.1172 1.5275-.4355.516-.8548.91-1.2781 1.1846-.4655.3088-1.0156.4737-1.5746.4737-.3786.0146-.7571-.0312-1.1212-.1357-.3129-.1056-.6224-.2201-.9271-.351-.3168-.1454-.6434-.2684-.9774-.368-.8258-.2121-1.6916-.2135-2.518-.0041-.3388.0975-.66461.2113-.98636.351-.45256.1901-.75319.3177-.92706.3721-.34694.1016-.70688.165-1.07088.1861-.56306 0-1.08794-.1609-1.60793-.4867zm7.42622-19.99964c-.7361.36806-1.4389.52488-2.1368.47369-.1097-.70281 0-1.42188.2916-2.20919.2484-.66701.6153-1.2836 1.0831-1.82.494-.56467 1.0935-1.027506 1.7648-1.362562.715-.368062 1.3966-.5671246 2.0483-.59637456.0845.73612456 0 1.46006656-.2706 2.24249656-.2504.69167-.6166 1.3357-1.0831 1.9045-.476.56545-1.0603 1.03008-1.7184 1.36663z" fill="#000"/></svg>

<svg width="22" height="26" viewBox="0 0 22 26" fill="none" xmlns="http://www.w3.org/2000/svg">
<path d="M5.66838 25.5131C5.15576 25.1721 4.70144 24.7507 4.32288 24.2651C3.90646 23.764 3.52064 23.2381 3.1675 22.6905C2.33882 21.4765 1.68894 20.1497 1.23782 18.7507C0.695879 17.1257 0.433441 15.5681 0.433441 14.0447C0.433441 12.3433 0.801504 10.8581 1.52138 9.61009C2.05501 8.63463 2.83959 7.81948 3.79394 7.24896C4.71882 6.6745 5.78151 6.36013 6.87007 6.33896C7.25113 6.33896 7.66144 6.39421 8.09694 6.49984C8.40975 6.5884 8.79082 6.72815 9.25638 6.90202C9.84869 7.13034 10.1745 7.27009 10.285 7.30421C10.6319 7.43096 10.9236 7.48621 11.1528 7.48621C11.3266 7.48621 11.572 7.43096 11.8507 7.34646C12.0075 7.29121 12.3033 7.19371 12.7266 7.01252C13.1458 6.85977 13.4757 6.72896 13.7381 6.63146C14.1403 6.51284 14.5295 6.40315 14.8764 6.3479C15.2877 6.28306 15.7051 6.26588 16.1204 6.29671C16.8399 6.34374 17.5487 6.49622 18.2239 6.74927C19.3281 7.19371 20.2211 7.88759 20.8857 8.87396C20.6048 9.0471 20.3411 9.24681 20.0984 9.47034C19.5699 9.93881 19.1198 10.4888 18.7651 11.0994C18.3014 11.9339 18.061 12.8739 18.0671 13.8286C18.0842 15.001 18.3848 16.0337 18.9771 16.9266C19.4126 17.5884 19.9785 18.1544 20.6403 18.5898C20.9791 18.8181 21.2708 18.975 21.5503 19.0806C21.4195 19.4868 21.2797 19.8801 21.1148 20.2701C20.7407 21.1447 20.2874 21.9831 19.7604 22.775C19.2908 23.4567 18.9227 23.9645 18.6432 24.3025C18.2077 24.8185 17.7884 25.2125 17.3651 25.4871C16.8996 25.7959 16.3495 25.9608 15.7905 25.9608C15.4119 25.9754 15.0334 25.9296 14.6693 25.8251C14.3564 25.7195 14.0469 25.605 13.7422 25.4741C13.4254 25.3287 13.0988 25.2057 12.7648 25.1061C11.939 24.894 11.0732 24.8926 10.2468 25.102C9.908 25.1995 9.58219 25.3133 9.26044 25.453C8.80788 25.6431 8.50725 25.7707 8.33338 25.8251C7.98644 25.9267 7.6265 25.9901 7.2625 26.0112C6.69944 26.0112 6.17456 25.8503 5.65457 25.5245L5.66838 25.5131ZM13.0946 5.51346C12.3585 5.88152 11.6557 6.03834 10.9578 5.98715C10.8481 5.28434 10.9578 4.56527 11.2494 3.77796C11.4978 3.11095 11.8647 2.49436 12.3325 1.95796C12.8265 1.39329 13.426 0.930454 14.0973 0.595398C14.8123 0.227336 15.4939 0.0282734 16.1456 -0.000976562C16.2301 0.735148 16.1456 1.45909 15.875 2.24152C15.6246 2.93319 15.2584 3.57722 14.7919 4.14602C14.3159 4.71147 13.7316 5.1761 13.0735 5.51265L13.0946 5.51346Z" fill="black"/>
</svg>
